src/assets/svg/benefit-img2.svg

<svg width="46" height="39" viewBox="0 0 46 39" fill="none" xmlns="http://www.w3.org/2000/svg">
<path d="M35.5332 16.8142C36.1471 17.8976 36.6038 19.026 36.9033 20.1997C37.2028 21.3733 37.36 22.5845 37.375 23.8333V26.158L23 33.4028L8.625 26.158C8.625 25.2552 8.63249 24.4126 8.64746 23.6302C8.66243 22.8478 8.72982 22.088 8.84961 21.3507C8.9694 20.6134 9.14909 19.8762 9.38867 19.1389C9.62825 18.4016 9.98763 17.6267 10.4668 16.8142L5.75 14.4444V27.6927C6.18424 27.8432 6.57357 28.0538 6.91797 28.3247C7.26237 28.5955 7.56934 28.9115 7.83887 29.2726C8.1084 29.6337 8.30306 30.0249 8.42285 30.4462C8.54264 30.8675 8.61003 31.3113 8.625 31.7778V39H0V31.7778C0 31.3264 0.0673828 30.89 0.202148 30.4688C0.336914 30.0475 0.531576 29.6487 0.786133 29.2726C1.04069 28.8964 1.34017 28.5804 1.68457 28.3247C2.02897 28.0689 2.42578 27.8582 2.875 27.6927V13L0 11.5556L23 0L46 11.5556L35.5332 16.8142ZM5.75 31.7778C5.75 31.3866 5.60775 31.048 5.32324 30.7622C5.03874 30.4763 4.70182 30.3333 4.3125 30.3333C3.92318 30.3333 3.58626 30.4763 3.30176 30.7622C3.01725 31.048 2.875 31.3866 2.875 31.7778V36.1111H5.75V31.7778ZM6.42383 11.5556L23 19.8837L39.5762 11.5556L23 3.22743L6.42383 11.5556ZM34.5 24.375C34.5 23.2164 34.3877 22.1406 34.1631 21.1476C33.9385 20.1545 33.5417 19.1389 32.9727 18.1007L23 23.1111L13.0273 18.1007C12.5332 18.9734 12.1589 19.8912 11.9043 20.8542C11.6497 21.8171 11.515 22.8102 11.5 23.8333V24.375L23 30.1528L34.5 24.375Z" fill="#00C700"/>
</svg>

<svg xmlns="http://www.w3.org/2000/svg" width="46" height="39" fill="none"><path fill="#00C700" d="M35.533 16.814a13.7 13.7 0 0 1 1.37 3.386q.45 1.76.472 3.633v2.325L23 33.403 8.625 26.158q0-1.354.022-2.528.023-1.173.203-2.28.18-1.105.539-2.211t1.078-2.325l-4.717-2.37v13.249q.652.224 1.168.632.516.406.92.948.405.54.585 1.173.18.631.202 1.332V39H0v-7.222q0-.678.202-1.31.203-.631.584-1.195.382-.566.899-.948a4.7 4.7 0 0 1 1.19-.632V13L0 11.556 23 0l23 11.556zM5.75 31.778q0-.587-.427-1.016a1.38 1.38 0 0 0-1.01-.429q-.585 0-1.011.43a1.4 1.4 0 0 0-.427 1.015v4.333H5.75zm.674-20.222L23 19.884l16.576-8.328L23 3.227zM34.5 24.375q0-1.738-.337-3.227-.336-1.491-1.19-3.047L23 23.11l-9.973-5.01q-.74 1.308-1.123 2.753-.381 1.444-.404 2.98v.541L23 30.153z"/></svg>
